!!! OTL: Literature28
!!! Chapter: 5
!!! Section: I
!!! Page: 350
!!! Mode: 
!!! Encoder: DJB
**kern
*staff1
*I"Piano
=1-
*clefG2
*k[b-e-a-]
*c:
*M4/4
4cc\
4cc\
2dd\
=2
4cc\
4cc\
2dd\
=3
4cc\
4dd\
4ee-\
4dd\
=4
4cc\
8dd\L
8cc\J
2a-/
=5
4g/
4e-/
4g/
4a-/
=6
4g/
8g/L
8e-/J
2d/
=7
4cc\
4dd\
4ee-\
4dd\
=8
4cc\
8dd\L
8cc\J
2a-/
=9
4g/
4e-/
4g/
4a-/
=10
!!linebreak:original
4g/
8g/L
8e-/J
2d/
=11
4cc\
4cc\
2dd\
=12
4cc\
4cc\
2dd\
=13
4e-/
4g/
4a-/
4cc\
=14
8.dd\L
16cc\Jk
16dd\LL
16cc\J
8a-\J
2g/
==
*-
